Newaita-dark/actions/symbolic/list-remove-symbolic.svg

<svg height="16" viewBox="0 0 16 16" width="16" xmlns="http://www.w3.org/2000/svg"><path d="m14.554688 7.070312h-13.230469c-.367188 0-.664063.296876-.664063.664063v.660156c0 .363281.296875.660157.664063.660157h13.230469c.363281 0 .660156-.296876.660156-.660157v-.660156c0-.367187-.296875-.664063-.660156-.664063zm0 0" fill="#e0e0e0"/></svg>

<?xml version="1.0" encoding="UTF-8"?>
<svg xmlns="http://www.w3.org/2000/svg" xmlns:xlink="http://www.w3.org/1999/xlink" width="16px" height="16px" viewBox="0 0 16 16" version="1.1">
<g id="surface1">
<path style=" stroke:none;fill-rule:nonzero;fill:rgb(87.843138%,87.843138%,87.843138%);fill-opacity:1;" d="M 14.554688 7.070312 L 1.324219 7.070312 C 0.957031 7.070312 0.660156 7.367188 0.660156 7.734375 L 0.660156 8.394531 C 0.660156 8.757812 0.957031 9.054688 1.324219 9.054688 L 14.554688 9.054688 C 14.917969 9.054688 15.214844 8.757812 15.214844 8.394531 L 15.214844 7.734375 C 15.214844 7.367188 14.917969 7.070312 14.554688 7.070312 Z M 14.554688 7.070312 "/>
</g>
</svg>
